**kern	**kern
*clefF4	*clefG2
*k[f#]	*k[f#]
*M2/4	*M2/4
=1-	=1-
4r	4BB
8C	16AA
.	16r
8C	8GG
=2	=2
4C	16AA
.	16AA
.	8BB
16C	16AA
16C	16BB
16D	16AA
16E	16BB-
=3	=3
16D	8BB
4D	.
.	4BB-
16r	.
8C	8AA
=4	=4
16C	16BB
4D	8BB
.	(16C
.	16D)
16r	16E
16C	8D#
16C	.
=5	=5
16C-	8E
8D	.
.	4F#
8C-	.
8D	.
.	8r
16D	.
=6	=6
2C-	8G
.	4A
.	16A
.	16B
=7	=7
(2C	4A
.	16A
.	16G
.	8G
=8	=8
2BB#)	16G
.	8A
.	(16B
.	4B)
=9	=9
2AA-	2A
=10	=10
2GG	16B
.	16A
.	4r
.	8G
=11	=11
*-	*-